web/public/images/startup-logos/tape.svg

<svg width="163" height="50" viewBox="0 0 163 50" fill="none" xmlns="http://www.w3.org/2000/svg">
<path d="M160.554 43.4764H124.335C123.224 43.4764 122.322 42.6808 122.322 41.7003C122.322 40.7203 123.224 39.9247 124.335 39.9247H140.452H156.57C155.575 39.186 154.517 38.1168 154.517 36.3621C154.517 34.1425 156.211 33.0167 157.334 32.2744C158.348 31.603 158.542 31.4006 158.542 31.0241C158.542 30.6511 158.348 30.4522 157.334 29.7774C156.211 29.0351 154.517 27.9128 154.517 25.6929C154.517 23.4731 156.211 22.3542 157.334 21.612C158.348 20.9442 158.542 20.7453 158.542 20.376C158.542 20.003 158.348 19.8077 157.334 19.1328C156.211 18.3906 154.517 17.2717 154.517 15.0519C154.517 13.3116 155.563 12.246 156.553 11.5073H124.335C123.224 11.5073 122.322 10.7117 122.322 9.73143C122.322 8.75119 123.224 7.95557 124.335 7.95557H160.554C161.664 7.95557 162.565 8.75119 162.565 9.73143C162.565 11.9513 160.872 13.07 159.749 13.8124C158.735 14.4801 158.542 14.679 158.542 15.0519C158.542 15.4249 158.735 15.6202 159.749 16.295C160.872 17.0374 162.565 18.1561 162.565 20.376C162.565 22.5958 160.872 23.7145 159.749 24.4569C158.735 25.1246 158.542 25.3235 158.542 25.6929C158.542 26.0658 158.735 26.2647 159.749 26.936C160.872 27.6783 162.565 28.8006 162.565 31.0205C162.565 33.2403 160.872 34.3661 159.749 35.1085C158.735 35.7797 158.542 35.9823 158.542 36.3589C158.542 36.7351 158.735 36.9341 159.749 37.609C160.872 38.3513 162.565 39.477 162.565 41.6971C162.565 42.6808 161.664 43.4764 160.554 43.4764Z" fill="white"/>
<path fill-rule="evenodd" clip-rule="evenodd" d="M74 7.95557H158.921V43.4764H74V7.95557ZM92.6667 26.7797L95.9047 27.7747C95.4565 31.343 93.3555 32.9212 90.1174 32.9212C86.6725 32.9212 84.3294 31.1371 84.3294 27.9462V20.2608H82.1249V17.1043H84.3294V12.4039H88.7735V17.1043H94.3547V20.2608H88.7735V27.1914C88.7735 28.6668 89.5313 29.2157 90.6339 29.2157C91.1848 29.2157 92.3908 29.0785 92.6667 26.7797ZM97.2973 22.2165L97.9861 18.2022C100.708 17.1043 102.086 16.7955 104.635 16.7955C107.977 16.7955 110.801 18.511 110.801 22.0449V28.7697C110.801 29.6617 111.146 29.9705 111.869 29.9705C112.076 29.9705 112.283 29.9362 112.524 29.8676L112.558 32.2007C111.731 32.6467 110.732 32.9212 109.768 32.9212C107.701 32.9212 106.564 31.7203 106.358 29.8676V29.8333C105.462 31.4115 103.877 32.9212 101.362 32.9212C99.1232 32.9212 96.574 31.7203 96.574 28.4952C96.574 24.6868 100.26 23.7947 103.809 23.7947C104.67 23.7947 105.565 23.829 106.358 23.932V23.4173C106.358 21.839 106.323 19.952 103.809 19.952C102.878 19.952 102.155 20.0207 101.431 20.398L100.846 22.5939L97.2973 22.2165ZM102.982 29.7647C104.532 29.7647 106.151 28.7011 106.358 26.2651V26.0592C105.634 25.9562 104.842 25.8533 104.118 25.8533C102.534 25.8533 101.156 26.2994 101.156 27.9805C101.156 28.9755 101.638 29.7647 102.982 29.7647ZM125.334 16.7955C129.261 16.7955 131.983 19.6433 131.983 24.4809C131.983 29.0441 129.537 32.9212 124.851 32.9212C122.612 32.9212 121.028 32.0634 120.098 30.6224V36.4551H122.854V39.8861H113.587V36.4551H115.654V20.4324H113.415V17.1043H120.098V20.055C120.924 18.2708 122.509 16.7955 125.334 16.7955ZM123.75 29.4215C125.85 29.4215 127.366 28.0148 127.366 24.9269C127.366 21.9077 125.885 20.2951 123.75 20.2951C121.441 20.2951 120.236 22.1822 120.132 24.7897L120.098 25.3387C120.098 27.8776 121.544 29.4215 123.75 29.4215ZM144.98 27.0199L148.7 27.7061C148.493 30.4508 145.944 32.9212 141.466 32.9212C136.85 32.9212 133.474 30.3137 133.474 25.1328C133.474 20.3637 136.333 16.7955 141.259 16.7955C145.566 16.7955 148.493 19.506 148.562 23.5203C148.562 24.2065 148.493 24.9613 148.322 25.7504H138.125C138.365 28.1521 139.537 29.4215 141.776 29.4215C144.154 29.4215 144.808 27.9462 144.98 27.0199ZM138.159 23.1772H143.981C144.188 21.6332 143.36 19.952 141.259 19.952C139.434 19.952 138.434 21.2558 138.159 23.1772Z" fill="white"/>
<path d="M24.0149 36.8838L16.9238 49.0602H56.5359L49.4447 36.8838H24.0149Z" fill="white"/>
<path d="M44.0657 17.4011H29.3945V24.7071H44.0657V17.4011Z" fill="white"/>
<path d="M66.0202 0.353516H7.33558C3.42328 0.353516 0 3.51943 0 7.6595V41.754C0 45.8942 3.42328 49.06 7.33558 49.06H13.9376L22.0067 34.9352C22.2512 34.6918 22.7403 34.448 23.2293 34.448H50.1263C50.6154 34.448 50.8598 34.6918 51.1047 35.1786L59.1738 49.3038H66.0202C70.1771 49.3038 73.3557 45.8942 73.3557 41.9978V7.90302C73.3557 3.51943 70.1771 0.353516 66.0202 0.353516ZM5.1349 5.46771C5.62395 4.98063 6.35751 4.98063 6.84652 5.46771C7.09107 5.71123 7.33558 6.19831 7.33558 6.44183C7.33558 6.68535 7.33558 7.17242 6.84652 7.17242C6.60201 7.41595 6.35751 7.6595 6.11297 7.6595C5.86846 7.6595 5.3794 7.41595 5.1349 7.17242C4.89039 6.92891 4.89039 6.68535 4.89039 6.44183C4.89039 6.19831 4.89039 5.71123 5.1349 5.46771ZM6.84652 43.7024C6.60201 43.9458 6.35751 44.1896 6.11297 44.1896C5.86846 44.1896 5.3794 43.9458 5.1349 43.7024C4.89039 43.459 4.89039 43.2152 4.89039 42.9718C4.89039 42.7284 4.89039 42.2411 5.1349 42.2411C5.62395 41.754 6.35751 41.754 6.84652 42.2411C7.09107 42.2411 7.33558 42.7284 7.33558 42.9718C7.33558 43.2152 7.09107 43.459 6.84652 43.7024ZM15.8937 29.5775C11.2479 29.5775 7.33558 25.6809 7.33558 21.0538C7.33558 16.4267 11.2479 12.5301 15.8937 12.5301C20.5396 12.5301 24.4519 16.4267 24.4519 21.0538C24.4519 25.6809 20.5396 29.5775 15.8937 29.5775ZM46.4585 25.9245C46.4585 26.655 45.9698 27.1421 45.2362 27.1421H28.1195C27.386 27.1421 26.8971 26.655 26.8971 25.9245V16.1831C26.8971 15.4525 27.386 14.9655 28.1195 14.9655H45.2362C45.9698 14.9655 46.4585 15.4525 46.4585 16.1831V25.9245ZM57.4619 29.5775C52.8161 29.5775 48.9039 25.6809 48.9039 21.0538C48.9039 16.4267 52.8161 12.5301 57.4619 12.5301C62.108 12.5301 66.0202 16.4267 66.0202 21.0538C66.0202 25.6809 62.108 29.5775 57.4619 29.5775ZM67.9764 43.7024C67.7317 43.9458 67.4872 44.1896 66.9981 44.1896C66.5093 44.1896 66.2645 43.9458 66.0202 43.9458C66.0202 43.459 66.0202 43.2152 66.0202 42.9718C66.0202 42.7284 66.0202 42.2411 66.2645 42.2411C66.7537 41.754 67.4872 41.754 67.9764 42.2411C68.2208 42.4846 68.2208 42.7284 68.2208 42.9718C68.4652 43.2152 68.2208 43.459 67.9764 43.7024ZM67.9764 7.17242C67.7317 7.41595 67.4872 7.6595 67.2429 7.6595C66.9981 7.6595 66.5093 7.41595 66.2645 7.17242C66.0202 6.92891 66.0202 6.68535 66.0202 6.44183C66.0202 6.19831 66.0202 5.71123 66.2645 5.71123C66.7537 5.22415 67.4872 5.22415 67.9764 5.71123C68.2208 5.71123 68.4652 6.19831 68.4652 6.44183C68.4652 6.68535 68.2208 6.92891 67.9764 7.17242Z" fill="white"/>
</svg>

<svg fill="none" height="50" width="163" xmlns="http://www.w3.org/2000/svg"><g fill="#fff"><path d="M160.6 43.5h-36.3c-1 0-2-.8-2-1.8s1-1.8 2-1.8h32.2c-1-.7-2-1.8-2-3.5 0-2.3 1.7-3.4 2.8-4.1 1-.7 1.2-.9 1.2-1.3 0-.3-.2-.5-1.2-1.2-1-.8-2.8-1.9-2.8-4.1 0-2.2 1.7-3.3 2.8-4 1-.8 1.2-1 1.2-1.3 0-.4-.2-.6-1.2-1.3-1-.7-2.8-1.8-2.8-4 0-1.8 1-2.9 2-3.6h-32.2c-1 0-2-.8-2-1.8s1-1.7 2-1.7h36.3c1 0 2 .8 2 1.7 0 2.3-1.7 3.4-2.9 4.1-1 .7-1.2.9-1.2 1.3 0 .3.2.5 1.2 1.2 1.2.7 2.9 1.9 2.9 4 0 2.3-1.7 3.4-2.9 4.2-1 .6-1.2.8-1.2 1.2 0 .4.2.6 1.2 1.2 1.2.8 2.9 1.9 2.9 4.1 0 2.2-1.7 3.4-2.9 4.1-1 .7-1.2.9-1.2 1.3 0 .3.2.5 1.2 1.2 1.2.8 2.9 1.9 2.9 4.1 0 1-1 1.8-2 1.8z"/><path clip-rule="evenodd" d="M74 8h85v35.5H74zm18.7 18.8 3.2 1c-.4 3.5-2.5 5.1-5.8 5.1-3.4 0-5.8-1.8-5.8-5v-7.6h-2.2V17h2.2v-4.7h4.5v4.7h5.6v3.2h-5.6v6.9c0 1.5.7 2 1.8 2 .6 0 1.8-.1 2-2.4zm4.6-4.6.7-4a15 15 0 0 1 6.6-1.4c3.4 0 6.2 1.7 6.2 5.2v6.8c0 .9.3 1.2 1 1.2l.7-.1v2.3a6 6 0 0 1-2.7.7c-2.1 0-3.2-1.2-3.4-3-1 1.5-2.5 3-5 3-2.3 0-4.8-1.2-4.8-4.4 0-3.8 3.7-4.7 7.2-4.7l2.6.1v-.5c0-1.6 0-3.4-2.6-3.4-1 0-1.6 0-2.4.4l-.6 2.2zm5.7 7.6c1.5 0 3.2-1.1 3.4-3.5V26l-2.3-.2c-1.6 0-3 .4-3 2 0 1 .5 1.9 1.9 1.9zm22.3-13c4 0 6.7 2.8 6.7 7.7 0 4.5-2.5 8.4-7.1 8.4-2.3 0-3.9-.8-4.8-2.3v5.9h2.8v3.4h-9.3v-3.4h2v-16h-2.2V17h6.7v3a5.4 5.4 0 0 1 5.2-3.3zm-1.5 12.6c2 0 3.6-1.4 3.6-4.5 0-3-1.5-4.6-3.7-4.6-2.3 0-3.5 1.9-3.6 4.5v.5c0 2.6 1.4 4.1 3.7 4.1zM145 27l3.7.7c-.2 2.8-2.8 5.2-7.2 5.2-4.7 0-8-2.6-8-7.8 0-4.7 2.8-8.3 7.8-8.3 4.3 0 7.2 2.7 7.3 6.7l-.3 2.3h-10.2c.3 2.4 1.4 3.6 3.7 3.6 2.4 0 3-1.5 3.2-2.4zm-6.8-3.8h5.8c.2-1.6-.6-3.2-2.7-3.2-1.9 0-2.9 1.3-3.1 3.2z" fill-rule="evenodd"/><path d="M24 36.9 17 49h39.5l-7-12.2zM44 17.4H29.5v7.3H44z"/><path d="M66 .4H7.3C3.4.4 0 3.5 0 7.7v34c0 4.2 3.4 7.4 7.3 7.4H14L22 34.9c.3-.2.7-.5 1.2-.5h27c.4 0 .7.3.9.8l8 14.1h7c4 0 7.3-3.4 7.3-7.3V7.9c0-4.4-3.2-7.5-7.4-7.5zm-60.9 5c.5-.4 1.3-.4 1.7 0 .3.3.5.8.5 1s0 .8-.5.8c-.2.2-.4.5-.7.5l-1-.5C5 6.9 5 6.7 5 6.4s0-.7.2-1zm1.7 38.3c-.2.2-.4.5-.7.5l-1-.5c-.2-.2-.2-.5-.2-.7s0-.8.2-.8c.5-.4 1.3-.4 1.7 0 .3 0 .5.5.5.8s-.2.5-.5.7zm9-14.1c-4.6 0-8.5-4-8.5-8.5s4-8.6 8.6-8.6 8.6 4 8.6 8.6-4 8.5-8.6 8.5zm30.7-3.7c0 .8-.5 1.2-1.3 1.2h-17c-.8 0-1.3-.4-1.3-1.2v-9.7c0-.7.5-1.2 1.2-1.2h17.1c.8 0 1.3.5 1.3 1.2zm11 3.7c-4.7 0-8.6-4-8.6-8.5s4-8.6 8.6-8.6 8.5 4 8.5 8.6-3.9 8.5-8.5 8.5zM68 43.7c-.3.2-.5.5-1 .5s-.7-.3-1-.3v-1c0-.2 0-.7.3-.7.5-.4 1.2-.4 1.7 0 .2.3.2.5.2.8.3.2 0 .5-.2.7zm0-36.5c-.3.2-.5.5-.8.5l-1-.5c-.2-.3-.2-.5-.2-.8s0-.7.3-.7c.5-.5 1.2-.5 1.7 0 .2 0 .5.5.5.7s-.3.5-.5.8z"/></g></svg>
